assets/menlolucyjannano/original.svg

<svg viewBox="0 0 24 24" xmlns="http://www.w3.org/2000/svg"><path d="m19.46 1.492 1.54 1.544v7.464l-1.54 1.51-1.539-1.51v-7.464zm-7.469 0 1.557 1.544v7.464l-1.557 1.51-1.54-1.51v-7.464zm-7.451 10.518-1.54-1.511v-7.463l1.54-1.544 1.539 1.544v7.464l-1.54 1.51zm-1.54 1.509 1.54-1.51 1.539 1.51v8.971l-1.54 1.51-1.539-1.51v-8.972zm16.46 10.481-1.539-1.51v-8.972l1.54-1.51 1.539 1.511v8.972zm-13.38-24h4.373l1.54 1.492-1.54 1.544h-4.374l-1.54-1.544zm7.47 0h4.372l1.54 1.492-1.54 1.544h-4.373l-1.557-1.544 1.556-1.492z" fill="#ff5c00"/></svg>

<svg xmlns="http://www.w3.org/2000/svg" viewBox="0 0 24 24"><title>MENLO (Lucy/Jan-nano)</title><path fill="#ff5c00" d="M19.46 1.492 21 3.036V10.5l-1.54 1.51-1.539-1.51V3.036zm-7.469 0 1.557 1.544V10.5l-1.557 1.51-1.54-1.51V3.036zM4.54 12.01 3 10.499V3.036l1.54-1.544 1.539 1.544V10.5l-1.54 1.51zM3 13.519l1.54-1.51 1.539 1.51v8.971L4.539 24 3 22.49v-8.972zM19.46 24l-1.539-1.51v-8.972l1.54-1.51L21 13.519v8.972zM6.08 0h4.373l1.54 1.492-1.54 1.544H6.079l-1.54-1.544zm7.47 0h4.372l1.54 1.492-1.54 1.544h-4.373l-1.557-1.544L13.548 0z"/></svg>
